!!!OTL: ES LAEUTET ZUM GEBET
!!!ARE: Europa, Mitteleuropa, Deutschland
!!!SCT: F0378
!!!YEM: Copyright 1995, estate of Helmut Schaffrath.
**kern
*ICvox
*Ivox
*M2/4
*k[b-]
*F:
{8cc
=1
8cc
16a
16b-
8cc
8dd
=2
4cc
8r}
{8dd
=3
8cc
16b-
16a
8g
8b-
=4
4a
8f}
{8a
=5
8g
8g
8a
8bn
=6
8cc
8ee
8dd}
{8cc
=7
8bn
8a
8g
8f
=8
4e
8r}
{8cc
=9
8dd
8dd
8g
8g
=10
4cc
8a}
{8f
=11
8e
8f
8b-
8a
=12
4g
8r}
{8cc
=13
8bn
8bn
8bn
8bn
=14
4cc
8g}
{16e
16f
=15
8g
8g
8g
16a
16bn
=16
4cc
8r}
{8cc
=17
8dd-
8dd-
8cc
8cc
=18
4b-
8a-}
{8a-
=19
8g
8a-
8b-
8a-
=20
4g
8r}
{8dd
=21
8bn
8bn
8ff
8ff
=22
4ee
8cc}
{8cc
=23
8bn
8bn
8bn
16bn
16dd
=24
4cc
8r}
{8cc
=25
8dd
16b-
16cc
8dd
8dd
=26
4.ff}
{16ee
16dd
=27
8cc
8a
8g
8cc
=28
4f
8r}
==
!!!AGN: Jugend - Lied, Weihnachten
!!!ONB: ESAC (Essen Associative Code) Database: FINK
!!!AMT: simple duple
!!!AIN: vox
!!!EED: Helmut Schaffrath
!!!EEV: 1.0
*-
